X:954
T:That's Right Too
R:reel
C:Liz Carroll
D:Marco Pollier: Ebony & Brass
Z:id:hn-reel-954
M:C|
L:1/8
K:D
D2FA FEED | d2ef edBd | D2FA FEED | BcdD FE~E2 |
D2FA FEED | d2ef edBA | BD~D2 BAdB |1 AFEF D4 :|2 AFEF D3f ||
|: afef d3B | A2FD EFDf | afef d3e | efad effe |
d2ef edBA | BcdD FEED | BD~D2 BAdB |1 AFEF D3f :|2 AFEF D4 ||

